static/assets/img/icons/theme/weather/wind.svg

<svg height="24" viewBox="0 0 24 24" width="24" xmlns="http://www.w3.org/2000/svg"><g fill="none" fill-rule="evenodd"><path d="m0 0h24v24h-24z" opacity="0"/><g fill="#000" fill-rule="nonzero"><path d="m3 13v-2h14.5c.8284271 0 1.5-.6715729 1.5-1.5v-.5c0-.55228475-.4477153-1-1-1s-1 .44771525-1 1v1h-2v-1c0-1.65685425 1.3431458-3 3-3s3 1.34314575 3 3v.5c0 1.9329966-1.5670034 3.5-3.5 3.5z"/><path d="m3 9v-2h6.5c.8284271 0 1.5-.67157288 1.5-1.5v-.5c0-.55228475-.4477153-1-1-1-.55228475 0-1 .44771525-1 1v1h-2v-1c0-1.65685425 1.34314575-3 3-3 1.6568542 0 3 1.34314575 3 3v.5c0 1.93299662-1.5670034 3.5-3.5 3.5zm0 6h6.5c1.9329966 0 3.5 1.5670034 3.5 3.5v.5c0 1.6568542-1.3431458 3-3 3-1.65685425 0-3-1.3431458-3-3v-1h2v1c0 .5522847.44771525 1 1 1 .5522847 0 1-.4477153 1-1v-.5c0-.8284271-.6715729-1.5-1.5-1.5h-6.5z" opacity=".3"/></g></g></svg>

<svg width="24px" height="24px" viewBox="0 0 24 24" version="1.1" xmlns="http://www.w3.org/2000/svg" xmlns:xlink="http://www.w3.org/1999/xlink">
    <title>Icon For Wind</title>
    <g stroke="none" stroke-width="1" fill="none" fill-rule="evenodd">
        <polygon points="0 0 24 0 24 24 0 24" opacity="0"></polygon>
        <path d="M3,13 L3,11 L17.5,11 C18.3284271,11 19,10.3284271 19,9.5 L19,9 C19,8.44771525 18.5522847,8 18,8 C17.4477153,8 17,8.44771525 17,9 L17,10 L15,10 L15,9 C15,7.34314575 16.3431458,6 18,6 C19.6568542,6 21,7.34314575 21,9 L21,9.5 C21,11.4329966 19.4329966,13 17.5,13 L3,13 Z" fill="#000000" fill-rule="nonzero"></path>
        <path d="M3,9 L3,7 L9.5,7 C10.3284271,7 11,6.32842712 11,5.5 L11,5 C11,4.44771525 10.5522847,4 10,4 C9.44771525,4 9,4.44771525 9,5 L9,6 L7,6 L7,5 C7,3.34314575 8.34314575,2 10,2 C11.6568542,2 13,3.34314575 13,5 L13,5.5 C13,7.43299662 11.4329966,9 9.5,9 L3,9 Z M3,15 L9.5,15 C11.4329966,15 13,16.5670034 13,18.5 L13,19 C13,20.6568542 11.6568542,22 10,22 C8.34314575,22 7,20.6568542 7,19 L7,18 L9,18 L9,19 C9,19.5522847 9.44771525,20 10,20 C10.5522847,20 11,19.5522847 11,19 L11,18.5 C11,17.6715729 10.3284271,17 9.5,17 L3,17 L3,15 Z" fill="#000000" fill-rule="nonzero" opacity="0.3"></path>
    </g>
</svg>
